X:4974
L:1/8
M:9/8
K:F
 e | fcA AFA AFA | fcA fcA (G2 A) | fcA AFA ABc | BGB AFA G2 :: c | ABc cFc cFc | ABc cFA (G2 B) | 
 ABc cFc cFc | BGB AFA G2 :|

